X: 938
T: Gülizâr Seyir
C: Şefik Gürmeriç
O: Turkey
F: http://compmusic.upf.edu/node/140
N: gulizar--seyir--sofyan--1--sefik_gurmeric
N: makam= gulizar
N: form= seyir
N: usul= sofyan = 4/4
M: 4/4
L: 1/16
K: C _2/4B ^3/4f  
Q: 1/4=60
%%MIDI tuningsystem comma53
A4 a4 a6g2  | g2fe f2g2 e8  | c2d4e2 d4 c2B2  | \
w:   |   |   | 
c3B A2B2 A8  | 
w:   | 
A4 f4 f6e2  | a4 a2=b2 a2gf e4  | z4 d2e2 e4 a4  | \
w:   |   |   | 
e3d _7/8e3d c8  | 
w:   | 
z4 B2c2 d4 e4  | d2c4B2 B3A G4  | A4 e2=f2 e2d2 d2c2  | \
w:   |   |   | 
c3B cBBA A8  | 
w:   | 
|


